src/main/resources/img/expui/action/ConnectionRollback_dark.svg

<svg width="16" height="16" version="1.1" viewBox="0 0 16 16"  xmlns="http://www.w3.org/2000/svg"><path d="m5.5 3c-1.9508-3.34e-5 -5.5 0.28974-5.5 2v8.9902c0 1.5127 3.125 2.0129 5.5 2.0098 1.738-0.002342 3.8757-0.26928 4.8984-1h-1.8984a2.5002 2.5002 0 0 1-0.82812-0.1582c-0.64256 0.097642-1.3823 0.1582-2.1719 0.1582-2.5 0-4.5-0.59961-4.5-1.0996v-1.7012s1 0.80469 4.5 0.80469c0.19353 0 0.37619-0.003168 0.55469-0.007812a2.5002 2.5002 0 0 1-0.054688-0.49609v-0.50977c-0.16417 0.005281-0.33078 0.009766-0.5 0.009766-2.5 0-4.5-0.59961-4.5-1.0996v-1.7051s1 0.80469 4.5 0.80469c0.17445 0 0.33778-0.0040171 0.5-0.0078125v-0.99219a2.5002 2.5002 0 0 1-0.056641-0.0078125c-0.14575 0.0041502-0.2937 0.0078125-0.44336 0.0078125-2.5 0-4.5-0.59961-4.5-1.0996v-1.7051s0.61721 0.49052 2.5547 0.70508a2.5002 2.5002 0 0 1 0.023438-0.99023c-1.5225-0.14914-2.5781-0.4764-2.5781-0.91016 0-0.54917 1.6892-0.92952 3.8809-0.99023l0.90234-1.0059c-0.096522-0.0017905-0.19301-0.0039047-0.2832-0.0039062zm5 2.2363-0.36133 0.40234a2.5002 2.5002 0 0 1 0.36133 0.36133 2.5002 2.5002 0 0 1 0.36133-0.36133l-0.36133-0.40234z" fill="#ced0d6"/><g stroke-linejoin="round" ><path d="m8.5 12.5h4v-6h2.5l-4.5-5-4.5 5h2.5z" color="#000000" fill="#5e3838"/><path d="m10.5 1a0.50005 0.50005 0 0 0-0.37109 0.16602l-4.5 5a0.50005 0.50005 0 0 0 0.37109 0.83398h2v5.5a0.50005 0.50005 0 0 0 0.5 0.5h4a0.50005 0.50005 0 0 0 0.5-0.5v-5.5h2a0.50005 0.50005 0 0 0 0.37109-0.83398l-4.5-5a0.50005 0.50005 0 0 0-0.37109-0.16602zm0 1.2461 3.3789 3.7539h-1.3789a0.50005 0.50005 0 0 0-0.5 0.5v5.5h-3v-5.5a0.50005 0.50005 0 0 0-0.5-0.5h-1.3789z" color="#000000" fill="#db5c5c"/></g></svg>

<svg width="16" height="16" xmlns="http://www.w3.org/2000/svg"><path d="M5.5 3C3.55 3 0 3.29 0 5v8.99c0 1.513 3.125 2.013 5.5 2.01 1.738-.002 3.876-.27 4.898-1H8.5a2.5 2.5 0 0 1-.828-.158C7.029 14.939 6.29 15 5.5 15 3 15 1 14.4 1 13.9v-1.7s1 .804 4.5.804c.194 0 .376-.003.555-.008A2.5 2.5 0 0 1 6 12.5v-.51a15.5 15.5 0 0 1-.5.01C3 12 1 11.4 1 10.9V9.195S2 10 5.5 10c.174 0 .338-.004.5-.008V9a2.5 2.5 0 0 1-.057-.008C5.798 8.996 5.65 9 5.5 9 3 9 1 8.4 1 7.9V6.195s.617.49 2.555.705a2.5 2.5 0 0 1 .023-.99C2.056 5.761 1 5.434 1 5c0-.55 1.69-.93 3.88-.99l.903-1.006C5.687 3.002 5.59 3 5.5 3zm5 2.236-.361.403A2.5 2.5 0 0 1 10.5 6a2.5 2.5 0 0 1 .361-.361l-.361-.403z" fill="#ced0d6"/><g stroke-linejoin="round" color="#000"><path d="M8.5 12.5h4v-6H15l-4.5-5-4.5 5h2.5z" fill="#5e3838"/><path d="M10.5 1a.5.5 0 0 0-.371.166l-4.5 5A.5.5 0 0 0 6 7h2v5.5a.5.5 0 0 0 .5.5h4a.5.5 0 0 0 .5-.5V7h2a.5.5 0 0 0 .371-.834l-4.5-5A.5.5 0 0 0 10.5 1zm0 1.246L13.879 6H12.5a.5.5 0 0 0-.5.5V12H9V6.5a.5.5 0 0 0-.5-.5H7.121z" fill="#db5c5c"/></g></svg>
